X:1
T:[ID 3-19a]
T:[ID 3-19a]
T:Bezeichnung standardisiert: Menuet Prinz Ferdinand ; Menuet 31.
T:Urheber unbekannt Erstbeleg: 1773 (Datum in der schriftlichen Quelle) Datum in der hier transkribierten schriftlichen Quelle: 1775
C:Urheber unbekannt
C:Erstbeleg: 1773 (Datum in der schriftlichen Quelle)
C:Datum in der hier transkribierten schriftlichen Quelle: 1775
L:1/8
M:3/4
K:G
V:1 treble 
V:1
 B3 c B2 | B3 c B2 | B2 cdec | B2 A2 G2 | c2 cBcA | B2 BABG | FG A2 G2 | F6 :: F2 (3FGA (3GAB | %9
 A4 G2 | B2 BcdB | c4 B2 | A2 (3ABc F2 | G2 (3GAB B,2 | FAGCB,A, | B,4 z2 :| %16

